X: 191
M: 6/8
L: 1/8
K: G
!segno!B2B |\
[| "2.f. enrondeau"d2d |\
gBc d2d | gBc d2d | g2f e2d | c2A f2f |\
fed g2g | gfe a2a | agf ed^c | d3 !segno!y|]

